icons/hsqldb/hsqldb-original.svg

<svg height="200" viewBox="0 0 200 200" width="200" xmlns="http://www.w3.org/2000/svg"><path d="m0 0h93.007812c-21.714843 1.773438-42.582031 10.308594-58.53125 25.273438-7.160156 5.550781-12.683593 13.410156-17.078124 21.25-4.589844 8.308593-7.65625 17.492187-9.183594 26.851562-.488282 5.324219-1.421875 10.425781-1.082032 15.800781.691407 8.816407 1.910157 17.289063 5.117188 25.589844 9.074219 25.742187 31.601562 46.066406 58.140625 52.449219 15.816406 4.117187 32.632813 3.109375 48.035156-2.207032 3.03125-1.191406 6.015625-2.457031 9.109375-3.507812 12.507813 12.492188 25.03125 24.964844 37.507813 37.492188 6.5-6.109376 12.546875-12.683594 19.058593-18.785157-3.125-5.023437-8.601562-8.53125-12.394531-13.105469-1.324219-1.578124-2.789062-3.058593-4-4.71875-.105469-1.257812.96875-2.089843 1.667969-3.007812 10.058594-10.910156 17.425781-24.300781 21.398438-38.582031 2-6.984375 3.308593-14.34375 3.175781-21.625-.066407-6.976563.402343-13.375-1.097657-20.175781-3.011718-17.867188-11.367187-34.859376-23.683593-48.152344-12.402344-13.539063-28.894531-23.523438-46.742188-27.914063-4.765625-1.21875-9.777343-1.96875-14.640625-2.710937l-1.644531-.214844h93.859375v200h-200zm0 0" fill="#fff"/><path d="m93.007812 0h13.132813l1.644531.214844c4.863282.742187 9.875 1.492187 14.640625 2.710937 17.847657 4.390625 34.339844 14.375 46.742188 27.914063 12.316406 13.292968 20.671875 30.285156 23.683593 48.152344 1.5 6.800781 1.03125 13.199218 1.097657 20.175781.132812 7.28125-1.175781 14.640625-3.175781 21.625-3.972657 14.28125-11.339844 27.671875-21.398438 38.582031-.699219.917969-1.773438 1.75-1.667969 3.007812 1.210938 1.660157 2.675781 3.140626 4 4.71875-4.117187-2.792968-7.097656-6.328124-10.722656-9.75-3.976563-3.75-7.585937-7.941406-11.785156-11.441406-3.382813 2.730469-6.484375 5.738282-10.089844 8.179688-3.785156 2.585937-7.71875 4.953125-11.574219 7.410156-3.09375 1.050781-6.078125 2.316406-9.109375 3.507812-15.402343 5.316407-32.21875 6.324219-48.035156 2.207032-26.539063-6.382813-49.066406-26.707032-58.140625-52.449219-3.207031-8.300781-4.425781-16.773437-5.117188-25.589844-.339843-5.375.59375-10.476562 1.082032-15.800781 1.527344-9.359375 4.59375-18.542969 9.183594-26.851562 4.394531-7.839844 9.917968-15.699219 17.078124-21.25 15.949219-14.964844 36.816407-23.5 58.53125-25.273438zm0 0" fill="#9cc5e5"/><path d="m144.214844 39.933594c20.175781 16.167968 30.292968 44.007812 24.785156 69.316406-2.558594 13.324219-9.375 26.324219-18.964844 35.933594-2.183594-1.5-4.035156-3.300782-5.84375-5.21875-3.851562-3.824219-7.617187-7.730469-11.550781-11.464844-3 2.832031-6.050781 5.558594-9.53125 7.773438-10.066406 6.75-21.910156 9.734374-33.949219 9.800781-10.71875-.515625-21.175781-3.539063-30.261718-9.316407-13.273438-8.117187-22.78125-21.691406-26.273438-36.824218-1.910156-6.648438-1.550781-13.082032-1.308594-19.957032 1.285156-10.527343 5.265625-20.894531 11.675782-29.367187 9.074218-10.917969 20.964843-19.292969 34.609374-23.425781 22.332032-7.507813 48.558594-2.308594 66.613282 12.75zm0 0" fill="#549ecf"/><path d="m140.332031 68.851562c6.394531 9.816407 8.675781 22.28125 6.585938 33.765626-1.667969 9.441406-6.300781 17.957031-12.785157 24.957031-2.050781-1.339844-3.75-2.847657-5.398437-4.640625-3.816406-4.066406-7.992187-7.75-11.632813-11.957032 3.597657-5.011718 6.039063-10.527343 5.773438-16.816406-.566406-7.21875-4.117188-14.417968-10.292969-18.433594-4.839843-3.46875-10.867187-4.867187-16.757812-4.078124-4.683594.558593-9.183594 2.84375-12.824219 5.777343-.640625 1.050781.648438 1.742188 1.183594 2.523438 10.558594 10.59375 21.234375 21.074219 31.675781 31.777343-6.660156 6.53125-15.71875 10.238282-25.027344 10.421876-13.265625.085937-25.847656-7.632813-31.972656-19.355469-3.21875-6.652344-4.925781-14.625-3.507813-21.953125 1.03125-7.179688 4.449219-14.089844 9.625-19.171875 2.566407-2.566407 4.921876-5.078125 8.058594-6.960938 5.199219-3.015625 10.480469-5.632812 16.40625-6.890625 18.984375-4.75 40.859375 4.167969 50.890625 21.035156zm0 0" fill="#9cc5e5"/><path d="m149.199219 145.910156c4.199219 3.5 7.808593 7.691406 11.785156 11.441406 3.625 3.421876 6.605469 6.957032 10.722656 9.75 3.792969 4.574219 9.269531 8.082032 12.394531 13.105469-6.511718 6.101563-12.558593 12.675781-19.058593 18.785157-12.476563-12.527344-25-25-37.507813-37.492188 3.855469-2.457031 7.789063-4.824219 11.574219-7.410156 3.605469-2.441406 6.707031-5.449219 10.089844-8.179688zm0 0" fill="#549ecf"/></svg>

<?xml version="1.0" encoding="UTF-8" standalone="no"?>
<!DOCTYPE svg PUBLIC "-//W3C//DTD SVG 1.1//EN" "http://www.w3.org/Graphics/SVG/1.1/DTD/svg11.dtd">
<!-- Created with Vectornator (http://vectornator.io/) -->
<svg height="100%" stroke-miterlimit="10" style="fill-rule:nonzero;clip-rule:evenodd;stroke-linecap:round;stroke-linejoin:round;" version="1.1" viewBox="0 0 200 200" width="100%" xml:space="preserve" xmlns="http://www.w3.org/2000/svg" xmlns:vectornator="http://vectornator.io" xmlns:xlink="http://www.w3.org/1999/xlink">
<defs/>
<g id="Untitled" vectornator:layerName="Untitled">
<path d="M93.0078 0L106.141 0L107.785 0.214844C112.648 0.957031 117.66 1.70703 122.426 2.92578C140.273 7.31641 156.766 17.3008 169.168 30.8398C181.484 44.1328 189.84 61.125 192.852 78.9922C194.352 85.793 193.883 92.1914 193.949 99.168C194.082 106.449 192.773 113.809 190.773 120.793C186.801 135.074 179.434 148.465 169.375 159.375C168.676 160.293 167.602 161.125 167.707 162.383C168.918 164.043 170.383 165.523 171.707 167.102C167.59 164.309 164.609 160.773 160.984 157.352C157.008 153.602 153.398 149.41 149.199 145.91C145.816 148.641 142.715 151.648 139.109 154.09C135.324 156.676 131.391 159.043 127.535 161.5C124.441 162.551 121.457 163.816 118.426 165.008C103.023 170.324 86.207 171.332 70.3906 167.215C43.8516 160.832 21.3242 140.508 12.25 114.766C9.04297 106.465 7.82422 97.9922 7.13281 89.1758C6.79297 83.8008 7.72656 78.6992 8.21484 73.375C9.74219 64.0156 12.8086 54.832 17.3984 46.5234C21.793 38.6836 27.3164 30.8242 34.4766 25.2734C50.4258 10.3086 71.293 1.77344 93.0078 0Z" fill="#9cc5e5" fill-rule="nonzero" opacity="1" stroke="none" vectornator:layerName="path"/>
<path d="M144.215 39.9336C164.391 56.1016 174.508 83.9414 169 109.25C166.441 122.574 159.625 135.574 150.035 145.184C147.852 143.684 146 141.883 144.191 139.965C140.34 136.141 136.574 132.234 132.641 128.5C129.641 131.332 126.59 134.059 123.109 136.273C113.043 143.023 101.199 146.008 89.1602 146.074C78.4414 145.559 67.9844 142.535 58.8984 136.758C45.625 128.641 36.1172 115.066 32.625 99.9336C30.7148 93.2852 31.0742 86.8516 31.3164 79.9766C32.6016 69.4492 36.582 59.082 42.9922 50.6094C52.0664 39.6914 63.957 31.3164 77.6016 27.1836C99.9336 19.6758 126.16 24.875 144.215 39.9336Z" fill="#549ecf" fill-rule="nonzero" opacity="1" stroke="none" vectornator:layerName="path"/>
<path d="M140.332 68.8516C146.727 78.668 149.008 91.1328 146.918 102.617C145.25 112.059 140.617 120.574 134.133 127.574C132.082 126.234 130.383 124.727 128.734 122.934C124.918 118.867 120.742 115.184 117.102 110.977C120.699 105.965 123.141 100.449 122.875 94.1602C122.309 86.9414 118.758 79.7422 112.582 75.7266C107.742 72.2578 101.715 70.8594 95.8242 71.6484C91.1406 72.207 86.6406 74.4922 83 77.4258C82.3594 78.4766 83.6484 79.168 84.1836 79.9492C94.7422 90.543 105.418 101.023 115.859 111.727C109.199 118.258 100.141 121.965 90.832 122.148C77.5664 122.234 64.9844 114.516 58.8594 102.793C55.6406 96.1406 53.9336 88.168 55.3516 80.8398C56.3828 73.6602 59.8008 66.75 64.9766 61.668C67.543 59.1016 69.8984 56.5898 73.0352 54.707C78.2344 51.6914 83.5156 49.0742 89.4414 47.8164C108.426 43.0664 130.301 51.9844 140.332 68.8516Z" fill="#9cc5e5" fill-rule="nonzero" opacity="1" stroke="none" vectornator:layerName="path"/>
<path d="M149.199 145.91C153.398 149.41 157.008 153.602 160.984 157.352C164.609 160.773 167.59 164.309 171.707 167.102C175.5 171.676 180.977 175.184 184.102 180.207C177.59 186.309 171.543 192.883 165.043 198.992C152.566 186.465 140.043 173.992 127.535 161.5C131.391 159.043 135.324 156.676 139.109 154.09C142.715 151.648 145.816 148.641 149.199 145.91Z" fill="#549ecf" fill-rule="nonzero" opacity="1" stroke="none" vectornator:layerName="path"/>
</g>
</svg>
